Yaru++/mimetypes/48/application-x-virtualbox-vdi.svg

<svg height="48" viewBox="0 0 12.699375 12.699376" width="48" xmlns="http://www.w3.org/2000/svg" xmlns:xlink="http://www.w3.org/1999/xlink"><linearGradient id="a" gradientUnits="userSpaceOnUse" x1="6.35044508" x2="6.35044508" y1=".13228552" y2="12.30252024"><stop offset="0" stop-color="#fff"/><stop offset=".125" stop-color="#fff" stop-opacity=".098039"/><stop offset=".92500001" stop-color="#fff" stop-opacity=".098039"/><stop offset="1" stop-opacity=".498039"/></linearGradient><linearGradient id="b" gradientTransform="matrix(0 -.02997086 -.02997 0 15.739288 13.625372)" gradientUnits="userSpaceOnUse" x1="512" x2="-.000001" y1="397.99393" y2="125.99394"><stop offset="0" stop-color="#d33a00"/><stop offset="1" stop-color="#ff672d"/></linearGradient><path d="m4.1621983.39685654c-.5881821 0-1.0513178.0135407-1.4323996.0775109-.3810844.0639689-.6929229.1839555-.9213476.4118408-.2284221.22788546-.3489841.53958346-.4123567.92082876-.0633725.3812456-.0757438.8453924-.07286 1.4349839v3.239953 3.2415034c-.00286.5886857.00955 1.0525967.07286 1.4334327.063373.381246.1839346.692944.4123567.920829.2284247.227885.5402632.347873.9213476.411841.3810845.06397.8442175.07751 1.4323996.07751h4.3757443c.588182 0 1.051075-.01352 1.431368-.07751.3802934-.064.6911794-.18439.9187604-.412357.227584-.227967.347434-.539443.411325-.920313.06389-.380867.07751-.844073.07751-1.4334327v-3.2415034-3.2415031c0-.5893606-.01362-1.0525645-.07751-1.4334338-.063891-.3808691-.183741-.6923443-.411325-.92031206-.227581-.2279676-.538467-.3483608-.9187604-.4123575-.380293-.06399691-.843186-.0775109-1.431368-.0775109z" opacity=".1"/><path d="m4.1621983.13228622c-.5880975 0-1.0515929.0141042-1.4323996.0780276-.3812749.06400116-.692825.18385575-.9213476.41184072-.2285623.2280266-.3489577.53890096-.4123567.92031216-.0633143.3808966-.0757438.8449217-.07286 1.4344672v3.2404697 3.2415032c-.00286.5889342.00958 1.0528012.07286 1.4334332.063399.381412.1837918.692285.4123567.920313.2285253.227983.54007.347839.9213476.411841.3808067.06392.8443021.07803 1.4323996.07803h4.3757443c.588092 0 1.050834-.01408 1.430849-.07803.3804424-.06402.6914794-.183652.9192794-.411841.227724-.228107.347405-.539258.411325-.920313.06386-.38069.07751-.844227.07751-1.4334332v-3.2415032-3.2415031c0-.5892071-.01365-1.0527452-.07751-1.4334338-.06392-.3810543-.183601-.69220356-.411325-.92031216-.2278-.22818684-.538837-.34781893-.9192794-.41184071-.380015-.06395009-.842757-.07802761-1.430849-.07802761z" fill="url(#b)"/><path d="m4.162574.26457138c-.5859201 0-1.0443173.0144588-1.4106969.0759605-.3663796.06150098-.6470093.17311846-.8495194.37515256s-.3142566.48213756-.3751528.84848516c-.0608961.3663479-.0741829.8250345-.0713096 1.4122476v3.2409864 3.2415032c-.00286.5869052.010424 1.0455172.07131 1.4117302.060896.366348.17264.646451.3751528.848485.2025127.202034.4831371.313651.8495194.375153.3663796.0615.8247768.07596 1.4106969.07596h4.3757446c.585917 0 1.043608-.01445 1.409146-.07596.365539-.06151.645721-.173077.847454-.375153.201732-.202073.313211-.482325.374634-.848485.06142-.36616.07545-.82463.07545-1.4117302v-3.2415032-3.2415031c0-.5871009-.01402-1.0455706-.07545-1.4117309-.061423-.3661603-.172902-.64641086-.374634-.84848516-.201733-.2020743-.481915-.31363861-.8474544-.37515254-.365538-.06151366-.823229-.07596052-1.409146-.07596052z" fill="none" opacity=".3" stroke="url(#a)" stroke-width=".26457"/><path d="m1.3232344 4.3654114h2.6146956l.8684256 3.0877367 1.1482564-4.0526538.8238826 2.2216261.826124-2.2216261.973253 2.8169093h2.7990354" fill="none" stroke="#fff" stroke-width=".529141"/><g fill="#fff"><path d="m1.5878047 6.2174036v3.2415032c-.011456 2.3393382.2397775 2.5790442 2.5743936 2.5790442h4.3757443c2.3346164 0 2.5743944-.23968 2.5743944-2.5790442v-3.2415032z" opacity=".08"/><path d="m6.3500706.39685654v11.64109446h2.187872c2.3346164 0 2.5743944-.23968 2.5743944-2.5790442v-3.2415032-3.2415031c0-2.33936516-.239778-2.57904396-2.5743944-2.57904396z" opacity=".08"/><g enable-background="new" stroke-width=".26457"><path d="m5.9708458 9.4462177q-.0963036.3605211-.2271778.6914103-.1284047.330889-.2494016.592638h-.2074231q-.1209968-.261749-.2518709-.592638-.1284048-.3308892-.2247084-.6914103h.2469323q.029632.1209968.069141.2592789.041978.1358128.086426.2716255.046917.1333439.093834.2592789.046917.125936.088896.224708.041978-.09877.088896-.224708.046917-.125935.091365-.2592789.046917-.1358127.086426-.2716255.041979-.1382821.07161-.2592789z"/><path d="m7.0030155 9.7178432q-.0419785-.0345705-.1209968-.0666717-.0790184-.0321012-.1728526-.0321012-.098773 0-.1703833.03704-.069141.034571-.1135889.098773-.044448.061733-.064202.1481593-.019755.086426-.019755.1851996 0 .224708.1111196.348174.1111195.120997.2963187.120997.093834 0 .1555674-.0074.064202-.0099.098773-.01975zm0-.864263.229647-.039509v1.879155q-.079018.02222-.2024845.04445-.1234661.02222-.2839721.02222-.1481594 0-.2666869-.04692-.1185275-.04692-.2024845-.133343-.083957-.08643-.1308741-.209893-.044448-.125935-.044448-.281502 0-.1481597.03704-.2716259.039509-.1234661.1135888-.2123617.07408-.088896.1802606-.1382821.1086502-.049387.2469323-.049387.1111195 0 .1950765.029632.086426.029632.1284048.056794z"/><path d="m7.8573982 10.730266h-.229647v-1.2840483h.229647zm-.1160582-1.5161647q-.061733 0-.1061809-.039509-.041978-.041978-.041978-.1111196 0-.069141.041978-.1086502.044448-.041978.1061809-.041978.061733 0 .1037116.041978.044448.039509.044448.1086502 0 .069141-.044448.1111196-.041978.039509-.1037116.039509z"/></g></g></svg>

<?xml version="1.0" encoding="UTF-8" standalone="no"?>
<svg
   xmlns:dc="http://purl.org/dc/elements/1.1/"
   xmlns:cc="http://creativecommons.org/ns#"
   xmlns:rdf="http://www.w3.org/1999/02/22-rdf-syntax-ns#"
   xmlns:svg="http://www.w3.org/2000/svg"
   xmlns="http://www.w3.org/2000/svg"
   xmlns:xlink="http://www.w3.org/1999/xlink"
   xmlns:sodipodi="http://sodipodi.sourceforge.net/DTD/sodipodi-0.dtd"
   xmlns:inkscape="http://www.inkscape.org/namespaces/inkscape"
   height="48"
   viewBox="0 0 12.699375 12.699376"
   width="48"
   version="1.1"
   id="svg33"
   sodipodi:docname="application-x-virtualbox-vdi.svg"
   inkscape:version="0.92.5 (2060ec1f9f, 2020-04-08)">
  <metadata
     id="metadata39">
    <rdf:RDF>
      <cc:Work
         rdf:about="">
        <dc:format>image/svg+xml</dc:format>
        <dc:type
           rdf:resource="http://purl.org/dc/dcmitype/StillImage" />
        <dc:title></dc:title>
      </cc:Work>
    </rdf:RDF>
  </metadata>
  <defs
     id="defs37">
    <linearGradient
       gradientTransform="matrix(0.26457032,0,0,0.26457032,-84.661745,-16.006504)"
       inkscape:collect="always"
       xlink:href="#linearGradient927-3-6"
       id="linearGradient925"
       x1="344"
       y1="61"
       x2="344"
       y2="107"
       gradientUnits="userSpaceOnUse" />
    <linearGradient
       inkscape:collect="always"
       id="linearGradient927-3-6">
      <stop
         style="stop-color:#ffffff;stop-opacity:1;"
         offset="0"
         id="stop923-3" />
      <stop
         id="stop933-5"
         offset="0.125"
         style="stop-color:#ffffff;stop-opacity:0.09803922" />
      <stop
         id="stop931-6"
         offset="0.92500001"
         style="stop-color:#ffffff;stop-opacity:0.09803922" />
      <stop
         style="stop-color:#000000;stop-opacity:0.49803922"
         offset="1"
         id="stop925-2" />
    </linearGradient>
    <linearGradient
       inkscape:collect="always"
       xlink:href="#linearGradient926"
       id="linearGradient951"
       gradientUnits="userSpaceOnUse"
       gradientTransform="matrix(0,-0.02997086,-0.02997,0,15.739288,13.625372)"
       x1="512"
       y1="397.99393"
       x2="-1.0000001e-06"
       y2="125.99394" />
    <linearGradient
       id="linearGradient926"
       inkscape:collect="always">
      <stop
         id="stop922"
         offset="0"
         style="stop-color:#d33a00;stop-opacity:1" />
      <stop
         id="stop924"
         offset="1"
         style="stop-color:#ff672d;stop-opacity:1" />
    </linearGradient>
  </defs>
  <sodipodi:namedview
     pagecolor="#ffffff"
     bordercolor="#666666"
     borderopacity="1"
     objecttolerance="10"
     gridtolerance="10"
     guidetolerance="10"
     inkscape:pageopacity="0"
     inkscape:pageshadow="2"
     inkscape:window-width="939"
     inkscape:window-height="670"
     id="namedview35"
     showgrid="false"
     inkscape:zoom="4.9166667"
     inkscape:cx="24"
     inkscape:cy="23.617017"
     inkscape:window-x="0"
     inkscape:window-y="27"
     inkscape:window-maximized="0"
     inkscape:current-layer="svg33" />
  <linearGradient
     id="a"
     gradientUnits="userSpaceOnUse"
     x1="344"
     x2="344"
     y1="62"
     y2="106">
    <stop
       offset="0"
       stop-color="#fff"
       id="stop2" />
    <stop
       offset=".125"
       stop-color="#fff"
       stop-opacity=".098039"
       id="stop4" />
    <stop
       offset=".92500001"
       stop-color="#fff"
       stop-opacity=".098039"
       id="stop6" />
    <stop
       offset="1"
       stop-color="#fff"
       stop-opacity=".498039"
       id="stop8" />
  </linearGradient>
  <clipPath
     id="b">
    <path
       d="m335.73108 62c-8.82418 0-9.77365.90635-9.7304 9.74838v12.25162 12.25162c-.0433 8.84203.90622 9.74838 9.7304 9.74838h16.53919c8.82418 0 9.7304-.90625 9.7304-9.74838v-12.25162-12.25162c0-8.84213-.90622-9.74838-9.7304-9.74838z"
       id="path11" />
  </clipPath>
  <linearGradient
     id="c"
     gradientTransform="matrix(0 -.02997086 .02997 0 -3.039509 13.625372)"
     gradientUnits="userSpaceOnUse"
     x1="459.03448"
     x2="35.310345"
     y1="419.23337"
     y2="207.36522">
    <stop
       offset="0"
       stop-color="#f2f2f2"
       id="stop14" />
    <stop
       offset="1"
       stop-color="#f9f9f9"
       id="stop16" />
  </linearGradient>
  <flowRoot
     xml:space="preserve"
     id="flowRoot958"
     style="fill:black;fill-opacity:1;stroke:none;font-family:sans-serif;font-style:normal;font-weight:normal;font-size:40px;line-height:1.25;letter-spacing:0px;word-spacing:0px"><flowRegion
       id="flowRegion960"><rect
         id="rect962"
         width="61.423729"
         height="69.559319"
         x="-5.2881355"
         y="-15.050847" /></flowRegion><flowPara
       id="flowPara964"></flowPara></flowRoot>  <flowRoot
     xml:space="preserve"
     id="flowRoot1371"
     style="fill:black;fill-opacity:1;stroke:none;font-family:sans-serif;font-style:normal;font-weight:normal;font-size:40px;line-height:1.25;letter-spacing:0px;word-spacing:0px"><flowRegion
       id="flowRegion1373"><rect
         id="rect1375"
         width="77.694916"
         height="83.796608"
         x="-11.79661"
         y="-16.677965" /></flowRegion><flowPara
       id="flowPara1377"></flowPara></flowRoot>  <path
     style="color:#000000;font-style:normal;font-variant:normal;font-weight:normal;font-stretch:normal;font-size:medium;line-height:normal;font-family:sans-serif;font-variant-ligatures:normal;font-variant-position:normal;font-variant-caps:normal;font-variant-numeric:normal;font-variant-alternates:normal;font-feature-settings:normal;text-indent:0;text-align:start;text-decoration:none;text-decoration-line:none;text-decoration-style:solid;text-decoration-color:#000000;letter-spacing:normal;word-spacing:normal;text-transform:none;writing-mode:lr-tb;direction:ltr;text-orientation:mixed;dominant-baseline:auto;baseline-shift:baseline;text-anchor:start;white-space:normal;shape-padding:0;clip-rule:nonzero;display:inline;overflow:visible;visibility:visible;opacity:0.1;isolation:auto;mix-blend-mode:normal;color-interpolation:sRGB;color-interpolation-filters:linearRGB;solid-color:#000000;solid-opacity:1;vector-effect:none;fill:#000000;fill-opacity:1;fill-rule:nonzero;stroke:none;stroke-width:0.52914065;stroke-linecap:butt;stroke-linejoin:miter;stroke-miterlimit:4;stroke-dasharray:none;stroke-dashoffset:0;stroke-opacity:1;marker:none;color-rendering:auto;image-rendering:auto;shape-rendering:auto;text-rendering:auto;enable-background:accumulate"
     d="m 4.1621983,0.39685654 c -0.5881821,0 -1.0513178,0.0135407 -1.4323996,0.0775109 C 2.3487143,0.53833634 2.0368758,0.65832294 1.8084511,0.88620824 1.580029,1.1140937 1.459467,1.4257917 1.3960944,1.807037 1.3327219,2.1882826 1.3203506,2.6524294 1.3232344,3.2420209 v 3.239953 3.2415034 c -0.00286,0.5886857 0.00955,1.0525967 0.07286,1.4334327 0.063373,0.381246 0.1839346,0.692944 0.4123567,0.920829 0.2284247,0.227885 0.5402632,0.347873 0.9213476,0.411841 0.3810845,0.06397 0.8442175,0.07751 1.4323996,0.07751 h 4.3757443 c 0.588182,0 1.051075,-0.01352 1.431368,-0.07751 0.3802934,-0.064 0.6911794,-0.18439 0.9187604,-0.412357 0.227584,-0.227967 0.347434,-0.539443 0.411325,-0.920313 0.06389,-0.380867 0.07751,-0.844073 0.07751,-1.4334327 V 6.4819739 3.2404708 c 0,-0.5893606 -0.01362,-1.0525645 -0.07751,-1.4334338 C 11.235505,1.4261679 11.115655,1.1146927 10.888071,0.88672494 10.66049,0.65875734 10.349604,0.53836414 9.9693106,0.47436744 9.5890176,0.41037053 9.1261246,0.39685654 8.5379426,0.39685654 Z"
     id="path1020"
     inkscape:connector-curvature="0"
     sodipodi:nodetypes="sccsccccccsscccscsccsss" />
  <path
     inkscape:connector-curvature="0"
     style="color:#000000;display:inline;overflow:visible;visibility:visible;fill:url(#linearGradient951);fill-opacity:1;fill-rule:nonzero;stroke:none;stroke-width:0.26457033;marker:none;enable-background:accumulate"
     d="m 4.1621983,0.13228622 c -0.5880975,0 -1.0515929,0.0141042 -1.4323996,0.0780276 C 2.3485238,0.27431498 2.0369737,0.39416957 1.8084511,0.62215454 1.5798888,0.85018114 1.4594934,1.1610555 1.3960944,1.5424667 1.3327801,1.9233633 1.3203506,2.3873884 1.3232344,2.9769339 v 3.2404697 3.2415032 c -0.00286,0.5889342 0.00958,1.0528012 0.07286,1.4334332 0.063399,0.381412 0.1837918,0.692285 0.4123567,0.920313 0.2285253,0.227983 0.54007,0.347839 0.9213476,0.411841 0.3808067,0.06392 0.8443021,0.07803 1.4323996,0.07803 h 4.3757443 c 0.588092,0 1.050834,-0.01408 1.430849,-0.07803 0.3804424,-0.06402 0.6914794,-0.183652 0.9192794,-0.411841 0.227724,-0.228107 0.347405,-0.539258 0.411325,-0.920313 0.06386,-0.38069 0.07751,-0.844227 0.07751,-1.4334332 V 6.2174036 2.9759005 c 0,-0.5892071 -0.01365,-1.0527452 -0.07751,-1.4334338 C 11.235476,1.1614124 11.115795,0.85026314 10.888071,0.62215454 10.660271,0.3939677 10.349234,0.27433561 9.9687916,0.21031383 9.5887766,0.14636374 9.1260346,0.13228622 8.5379426,0.13228622 Z"
     id="path949" />
  <path
     id="path901"
     d="m 4.162574,0.26457138 c -0.5859201,0 -1.0443173,0.0144588 -1.4106969,0.0759605 C 2.3854975,0.40203286 2.1048678,0.51365034 1.9023577,0.71568444 1.6998476,0.91771854 1.5881011,1.197822 1.5272049,1.5641696 1.4663088,1.9305175 1.453022,2.3892041 1.4558953,2.9764172 v 3.2409864 3.2415032 c -0.00286,0.5869052 0.010424,1.0455172 0.07131,1.4117302 0.060896,0.366348 0.17264,0.646451 0.3751528,0.848485 0.2025127,0.202034 0.4831371,0.313651 0.8495194,0.375153 0.3663796,0.0615 0.8247768,0.07596 1.4106969,0.07596 H 8.538319 c 0.585917,0 1.043608,-0.01445 1.409146,-0.07596 0.365539,-0.06151 0.645721,-0.173077 0.847454,-0.375153 0.201732,-0.202073 0.313211,-0.482325 0.374634,-0.848485 0.06142,-0.36616 0.07545,-0.82463 0.07545,-1.4117302 V 6.2174036 2.9759005 c 0,-0.5871009 -0.01402,-1.0455706 -0.07545,-1.4117309 C 11.10813,1.1980093 10.996651,0.91775874 10.794919,0.71568444 10.593186,0.51361014 10.313004,0.40204583 9.9474646,0.3405319 9.5819266,0.27901824 9.1242356,0.26457138 8.5383186,0.26457138 Z"
     style="color:#000000;display:inline;overflow:visible;visibility:visible;opacity:0.3;fill:none;fill-opacity:1;fill-rule:nonzero;stroke:url(#linearGradient925);stroke-width:0.26457033;stroke-opacity:1;marker:none;enable-background:accumulate"
     inkscape:connector-curvature="0" />
  <path
     sodipodi:nodetypes="cccccccc"
     inkscape:connector-curvature="0"
     id="path981"
     d="M 1.3232344,4.3654114 H 3.93793 L 4.8063556,7.4531481 5.954612,3.4004943 6.7784946,5.6221204 7.6046186,3.4004943 8.5778716,6.2174036 h 2.7990354"
     style="display:inline;fill:none;stroke:#ffffff;stroke-width:0.52914065;stroke-linecap:butt;stroke-linejoin:miter;stroke-miterlimit:4;stroke-dasharray:none;stroke-opacity:1;enable-background:new" />
  <path
     style="color:#000000;display:inline;overflow:visible;visibility:visible;opacity:0.07999998;fill:#ffffff;fill-opacity:1;fill-rule:nonzero;stroke:none;stroke-width:0.26457033;marker:none;enable-background:accumulate"
     d="m 1.5878047,6.2174036 v 3.2415032 c -0.011456,2.3393382 0.2397775,2.5790442 2.5743936,2.5790442 h 4.3757443 c 2.3346164,0 2.5743944,-0.23968 2.5743944,-2.5790442 V 6.2174036 Z"
     id="path1006"
     inkscape:connector-curvature="0" />
  <path
     style="color:#000000;display:inline;overflow:visible;visibility:visible;opacity:0.07999998;fill:#ffffff;fill-opacity:1;fill-rule:nonzero;stroke:none;stroke-width:0.26457033;marker:none;enable-background:accumulate"
     d="M 6.3500706,0.39685654 V 12.037951 h 2.187872 c 2.3346164,0 2.5743944,-0.23968 2.5743944,-2.5790442 V 6.2174036 2.9759005 c 0,-2.33936516 -0.239778,-2.57904396 -2.5743944,-2.57904396 z"
     id="path1013"
     inkscape:connector-curvature="0" />
  <g
     aria-label="vdi"
     style="font-style:normal;font-variant:normal;font-weight:normal;font-stretch:normal;font-size:2.46932292px;line-height:1.25;font-family:Ubuntu;-inkscape-font-specification:'Ubuntu, Normal';font-variant-ligatures:normal;font-variant-caps:normal;font-variant-numeric:normal;font-feature-settings:normal;text-align:start;letter-spacing:0px;word-spacing:0px;writing-mode:lr-tb;text-anchor:start;display:inline;fill:#ffffff;fill-opacity:1;stroke:none;stroke-width:0.26457033;enable-background:new"
     id="text930">
    <path
       d="M 5.9708458,9.4462177 Q 5.8745422,9.8067388 5.743668,10.137628 5.6152633,10.468517 5.4942664,10.730266 H 5.2868433 Q 5.1658465,10.468517 5.0349724,10.137628 4.9065676,9.8067388 4.810264,9.4462177 h 0.2469323 q 0.029632,0.1209968 0.069141,0.2592789 0.041978,0.1358128 0.086426,0.2716255 0.046917,0.1333439 0.093834,0.2592789 0.046917,0.125936 0.088896,0.224708 0.041978,-0.09877 0.088896,-0.224708 0.046917,-0.125935 0.091365,-0.2592789 0.046917,-0.1358127 0.086426,-0.2716255 0.041979,-0.1382821 0.07161,-0.2592789 z"
       style="stroke-width:0.26457033"
       id="path1528" />
    <path
       d="M 7.0030155,9.7178432 Q 6.961037,9.6832727 6.8820187,9.6511715 6.8030003,9.6190703 6.7091661,9.6190703 q -0.098773,0 -0.1703833,0.03704 -0.069141,0.034571 -0.1135889,0.098773 -0.044448,0.061733 -0.064202,0.1481593 -0.019755,0.086426 -0.019755,0.1851996 0,0.224708 0.1111196,0.348174 0.1111195,0.120997 0.2963187,0.120997 0.093834,0 0.1555674,-0.0074 0.064202,-0.0099 0.098773,-0.01975 z m 0,-0.864263 0.229647,-0.039509 v 1.879155 q -0.079018,0.02222 -0.2024845,0.04445 -0.1234661,0.02222 -0.2839721,0.02222 -0.1481594,0 -0.2666869,-0.04692 -0.1185275,-0.04692 -0.2024845,-0.133343 -0.083957,-0.08643 -0.1308741,-0.209893 -0.044448,-0.125935 -0.044448,-0.281502 0,-0.1481597 0.03704,-0.2716259 0.039509,-0.1234661 0.1135888,-0.2123617 0.07408,-0.088896 0.1802606,-0.1382821 0.1086502,-0.049387 0.2469323,-0.049387 0.1111195,0 0.1950765,0.029632 0.086426,0.029632 0.1284048,0.056794 z"
       style="stroke-width:0.26457033"
       id="path1530" />
    <path
       d="M 7.8573982,10.730266 H 7.6277512 V 9.4462177 h 0.229647 z M 7.74134,9.2141013 q -0.061733,0 -0.1061809,-0.039509 -0.041978,-0.041978 -0.041978,-0.1111196 0,-0.069141 0.041978,-0.1086502 0.044448,-0.041978 0.1061809,-0.041978 0.061733,0 0.1037116,0.041978 0.044448,0.039509 0.044448,0.1086502 0,0.069141 -0.044448,0.1111196 -0.041978,0.039509 -0.1037116,0.039509 z"
       style="stroke-width:0.26457033"
       id="path1532" />
  </g>
</svg>
